#src/img/common/account.svg

<svg width="24" height="24" fill="none" xmlns="http://www.w3.org/2000/svg"><path d="M19 5v14H5V5h14zm0-2H5a2 2 0 00-2 2v14a2 2 0 002 2h14c1.1 0 2-.9 2-2V5c0-1.1-.9-2-2-2zm-7 9c-1.65 0-3-1.35-3-3s1.35-3 3-3 3 1.35 3 3-1.35 3-3 3zm0-4c-.55 0-1 .45-1 1s.45 1 1 1 1-.45 1-1-.45-1-1-1zm6 10H6v-1.53c0-2.5 3.97-3.58 6-3.58s6 1.08 6 3.58V18zm-9.69-2h7.38c-.69-.56-2.38-1.12-3.69-1.12s-3.01.56-3.69 1.12z" fill="#202020" opacity=".54"/></svg>

<svg width="24" height="24" viewBox="0 0 24 24" fill="none" xmlns="http://www.w3.org/2000/svg">
  <g opacity="0.54">
    <path d="M19 5V19H5V5H19ZM19 3H5C3.89 3 3 3.9 3 5V19C3 20.1 3.89 21 5 21H19C20.1 21 21 20.1 21 19V5C21 3.9 20.1 3 19 3ZM12 12C10.35 12 9 10.65 9 9C9 7.35 10.35 6 12 6C13.65 6 15 7.35 15 9C15 10.65 13.65 12 12 12ZM12 8C11.45 8 11 8.45 11 9C11 9.55 11.45 10 12 10C12.55 10 13 9.55 13 9C13 8.45 12.55 8 12 8ZM18 18H6V16.47C6 13.97 9.97 12.89 12 12.89C14.03 12.89 18 13.97 18 16.47V18ZM8.31 16H15.69C15 15.44 13.31 14.88 12 14.88C10.69 14.88 8.99 15.44 8.31 16Z" fill="#202020"/>
  </g>
</svg>
